X: 24514
T: Lucy Farr's
R: barndance
M: 4/4
K: Amajor
A4 A2 A/A/A|ABcA F2 E2|c4 c2 c/c/c|cdec B4||
cdec B2 A2|ABcA F2 E2|EFAB c>e- e2|c/d/c B^A B3 B|
cdec A4|ABcA F4|E/E/E AB c2 ec|B/c/B A2 A4||

